X: 203
T:Wachet Auf
C:J. S. Bach/arr. Latham
K:G
Q:60
M:4/4
L:1/8
D | "G" (G/A/B) "G" (BA) "C" (cB) "G" (DC) | "Am" (B/G/A) "C" (CB,) "D/G" (FG) z D | "G" (G/A/B) "G" (BA) "C" (cB) "Bm" (DC) | "Am" (B/G/A) "C" (CB,) "D/G" (FG) z d |
"G" d2 "C" (c/B/A/G/) "D" (A/G/F/E/ "D" D)E/F/ | "G" (G/A/)(B/A/) "C" (c/B/A/G/) "G/D" (BA) z2 | "G" B "A" ^c2 d "Em" (G/F/G) "Em" z E | "A" ^c "A" d2 e "Em" (G/F/G) "Em" z g |
"D" f/e/d "D" d/^c/d "D" d/(c/B/A/) "D" (G/F/E/D/) | "Em" (E/F/G) "Em" G/F/(G "A" G/)(^c/d/e/ "A" d/c/B/A/) | "D" dA "D" F(E/D/) "Bm" (D/G/F/E/ "D" F)D |
"G" B,>^C "A" (C3/2B,/4C/4) "D" D2 "D" z D | "G" (G/A/B) "G" (BA) "C" (cB) "G" (DC) | "Am" (B/G/)A "C" (CB,) "D/G" (FG) z D | "G" (G/A/B) "G" (BA) "C" (cB) "Bm" (CB,) |
"Am" (B/G/A) "C" (CB,) "D/G" (FG) z A | "G" B "A" ^c2 d "Em" (G/F/G) "Em" z G | "A" ^c "A" d2 e "Em" (G/F/G) "A" z2 | "D" z2 "D" z d "G" d2 "C" (=c/B/A/G/) |
"D" (A/G/F/E/ "D" D)E/F/ "G" (G/A/)(B/A/) "Am" (c/B/A/G/) | "G/D" (BA) "Em" Bc/d/ "Am" cB"D"AD | "G" (G/A/B) "G" (BA) "C" (cB) "G" (DC) | "Am" (B/G/)A "C" (CB,) "D/G" (FG) z D |
"G" (G/A/B) "G" (BA) "C" (cB) "Bm" (DC) | "Am" (B/G/)A "C" (CB,) "D/G" (FG) z d | "G" d2 "C" (c/B/A/G/) "D" (A/G/F/E/ "D" D)E/F/ | "G" (G/A/)(B/A/) "C" (c/B/A/G/) "Bm/D" (BA) z A |
"G" B "A" ^c2 d "Em" (G/F/G) "Em" z E | "A" (^c "A" d2) e "Em" (G/F/G) "A" z g | "D" f/e/(d "D" d/)^c/(d "D" d/)(c/B/A/ "D" G/F/E/D/) |
"Em" (E/F/G) "Em" G/F/(G "A" G/)(^c/d/e/ "A" d/c/B/A/) "D" dA "D" FE/D/ "Bm" (D/G/F/E/ "F#m" F)D | "G" (B,>^C) "A" (C3/2B,/4C/4) "D" D4 |]
N: On G/A, keep rhythm, even though it feels odd.  At measure 18-19, vn rests; keep
N: going. At measure 21,  read notes carefully to maintain rhythm.

% White Cockade & Soldier's Joy are from "Mellie" Dunham's Fiddlin' (sic) Dance Tunes
% chords from Fiddler's Fake Book

